X:1
T:J. S. Bach
T:BWV 939 Little Prelude in C major
%%score { ( 1 4 ) | ( 2 3 ) }
L:1/8
Q:1/4=184
M:4/4
K:C
V:1 treble nm="Harp"
V:4 treble 
V:2 bass 
V:3 bass 
V:1
"^Presto" z CEG EC_BG | ACFA FCcA | BGBd BGfd | [ce]4 z2 [ce]2 | [cd]4 z2 [cd]2 | [Bd] GBd B2 e2 | %6
 c4 z2 [Ac]2- | [Ac]D^FA FDcA | BGBd BGfd | eGce cGge | ^fAcf cAaf | [dg]4 z4 | cegc' ge_bg | %13
 a/g/f/e/ d/c/B/A/ B/G/A/B/ c/d/e/f/ | g2 c4 B2 | c8 |] %16
V:2
 C,8- | C,8- | C,8 | z C,E,G, E,C,CE, | ^F,D,F,A, F,D,DF, | G,4 z2 G,2 | A,A,,C,E, C,A,,G,E, | %7
 ^F,4 z2 D,2 | G,/4F,/4G,3/2 G,,2 G,/4F,/4G,3/2 G,,2 | G,/4F,/4G,3/2 G,,2 G,/4F,/4G,3/2 G,,2 | %10
 G,/4F,/4G,3/2 G,,2 G,/4F,/4G,3/2 G,,2 | G,G,,B,,D, B,,G,,F,D, | E,C,D,G, E,C,CE, | F,8- | %14
 F,D,E,C, G,2 G,,2 | C,,8 |] %16
V:3
 C,,8- | C,,8- | C,,8 | x8 | x8 | x8 | x8 | x8 | x8 | x8 | x8 | x8 | x8 | x8 | x8 | x8 |] %16
V:4
 x8 | x8 | x8 | G4 z2 G2 | A4 z2 A2 | G z z2 G2 B2 | A4 z2 E2- | E z z2 z4 | x8 | x8 | x8 | %11
 B4 z2 B2 | x8 | x8 | z2 G4 D2 | E8 |] %16

